SVG/timestamp.svg

<?xml version="1.0" encoding="UTF-8" standalone="no"?>
<!DOCTYPE svg PUBLIC "-//W3C//DTD SVG 1.1//EN" "http://www.w3.org/Graphics/SVG/1.1/DTD/svg11.dtd">
<svg width="100%" height="100%" viewBox="0 0 417 417" version="1.1" xmlns="http://www.w3.org/2000/svg" xmlns:xlink="http://www.w3.org/1999/xlink" xml:space="preserve" xmlns:serif="http://www.serif.com/" style="fill-rule:evenodd;clip-rule:evenodd;stroke-linejoin:round;stroke-miterlimit:2;">
    <g transform="matrix(0.520833,0,0,0.520833,-41.6667,458.333)">
        <path d="M627,-287L672,-332L513,-492L513,-693L453,-693L453,-468L627,-287ZM480,-80C425.333,-80 373.667,-90.5 325,-111.5C276.333,-132.5 233.833,-161.167 197.5,-197.5C161.167,-233.833 132.5,-276.333 111.5,-325C90.5,-373.667 80,-425.333 80,-480C80,-534.667 90.5,-586.333 111.5,-635C132.5,-683.667 161.167,-726.167 197.5,-762.5C233.833,-798.833 276.333,-827.5 325,-848.5C373.667,-869.5 425.333,-880 480,-880C534.667,-880 586.333,-869.5 635,-848.5C683.667,-827.5 726.167,-798.833 762.5,-762.5C798.833,-726.167 827.5,-683.667 848.5,-635C869.5,-586.333 880,-534.667 880,-480C880,-425.333 869.5,-373.667 848.5,-325C827.5,-276.333 798.833,-233.833 762.5,-197.5C726.167,-161.167 683.667,-132.5 635,-111.5C586.333,-90.5 534.667,-80 480,-80ZM480,-140C573.333,-140 653.333,-173.333 720,-240C786.667,-306.667 820,-386.667 820,-480C820,-573.333 786.667,-653.333 720,-720C653.333,-786.667 573.333,-820 480,-820C386.667,-820 306.667,-786.667 240,-720C173.333,-653.333 140,-573.333 140,-480C140,-386.667 173.333,-306.667 240,-240C306.667,-173.333 386.667,-140 480,-140Z" style="fill:white;fill-rule:nonzero;"/>
    </g>
</svg>

<svg xmlns="http://www.w3.org/2000/svg" height="48px" viewBox="0 -960 960 960" width="48px" fill="#FFFFFF"><path d="m627-287 45-45-159-160v-201h-60v225l174 181ZM480-80q-82 0-155-31.5t-127.5-86Q143-252 111.5-325T80-480q0-82 31.5-155t86-127.5Q252-817 325-848.5T480-880q82 0 155 31.5t127.5 86Q817-708 848.5-635T880-480q0 82-31.5 155t-86 127.5Q708-143 635-111.5T480-80Zm0-400Zm0 340q140 0 240-100t100-240q0-140-100-240T480-820q-140 0-240 100T140-480q0 140 100 240t240 100Z"/></svg>
